X: 1502
T: Grand Old Duke Of York
C:Trad, English
B: australian traditional tunes wiki
M:2/4
L:1/8
R: March
Q: 1/4=100
K:C
V:1 
e>d|:"C"cG EG|c3c|"G7"dd dd|d3d|"C"ee "C7"ee/e/|"F"ff/f/ ff/f/|"C"ee "G7"dd|"C"c3c/B/|
"Am"AA Bc|"Dm"d2z/e/d/c/|"Am"AA Bc|"Dm"d3c/B/|"Am"AA Bc|"G"d2"C"ec|"D7"d2A2|"G7"G2"G"G"G7"e/>d/|
"C"cc/c/ cc/c/|c3c|"G7"dd/d/ dd/d/|d3d|"C"ee/e/ "C7"ee|"F"ff ff/f/|"C"ee "G7"dd|1"C"c2"G7"e>d:|2"C"c2z2||
% abcbook-tune_id 6342d53aa38e95b8eee26d9a


% abcbook-boost 0
% abcbook-tablature 
% abcbook-transpose 
% abcbook-lastupdated 1665324368181
% abcbook-soundfonts 
% abcbook-repeats 1
% NFF Book 2017

